X:237
T:Yet Before We See Your Plans
%%stretchlast false
M:4/4
L:1/4
K:F clef=C1
"^I"[F,A,C] "^iii²"[E,A,C]/ "^vi"[E,A,D]/ [D,A,DF] "^vi7³"[C,A,DF] | "^ii¹"[B,,G,DG] "^ii"[G,,B,DG]/ "^ii7"[G,,B,DF]/ "^iii¹"[C,A,EA]/ "^iii7¹"[C,A,EG]/ "^IV¹"[D,B,CF]/ "^IV"[D,B,CD]/ | "^V¹"[E,G,C] "^I"[F,A,C]/ "^vi¹"[F,A,D]/ "^ii7"[G,B,DF] "^I¹"[A,CF] | "^IVmaj7"[B,DFA] "^V"[CEG] "^I"[F,A,F]2 | [F,A,C] "^iii²"[E,A,C]/ "^vi"[E,A,D]/ [D,A,DF] "^vi7³"[C,A,DF] | "^ii¹"[B,,G,DG] "^ii"[G,,B,DG]/ "^ii7"[G,,B,DF]/ "^iii¹"[C,A,EA]/ "^iii7¹"[C,A,EG]/ "^IV¹"[D,B,CF]/ "^IV"[D,B,CD]/ | "^V¹"[E,G,C] "^I"[F,A,C]/ "^vi¹"[F,A,D]/ "^ii7"[G,B,DF] "^I¹"[A,CF] | "^IVmaj7"[B,DFA] "^V"[CEG] "^I"[F,A,F]2 | [F,CFA] "^iii7²"[E,A,Gc] "^vi7"[D,A,Fc] "^iii¹"[C,A,Ec] | "^IVmaj7"[B,,DFA]/ "^I"[B,,CFA]/ "^ii"[G,,B,DA]/ "^vi"[G,,A,DF]/ "^V7"[C,B,EG] "^vi"[D,A,DF]/ "^IV¹"[D,B,DF]/ | "^Imaj7"[F,CEA] "^iii7²"[E,A,Gc] "^vi7"[D,A,Fc] "^iii¹"[C,A,Ec] | "^IVmaj7"[B,,DFA]/ "^I"[B,,CFA]/ "^ii"[G,,B,DA]/ "^vi"[G,,A,DF]/ "^V7"[C,B,EG] "^V"[C,CEG] | "^I"[F,A,C] "^iii²"[E,A,C]/ "^vi"[E,A,D]/ [D,A,DF] "^vi7³"[C,A,DF] | "^ii¹"[B,,G,DG] "^ii"[G,,B,DG]/ "^ii7"[G,,B,DF]/ "^iii¹"[C,A,EA]/ "^iii7¹"[C,A,EG]/ "^IV¹"[D,B,CF]/ "^IV"[D,B,CD]/ | "^V¹"[E,G,C] "^I"[F,A,C]/ "^vi¹"[F,A,D]/ "^ii7"[G,B,DF] "^I¹"[A,CF] | "^IVmaj7"[B,DFA] "^V"[CEG] "^I"[F,A,F]2 |]
